Adwaita++-Dark/actions/22/earthquake.svg

<svg height="22" viewBox="0 0 22 22" width="22" xmlns="http://www.w3.org/2000/svg">
  <path d="m8.1308594 1c.60456 1.5973 3.1415246 8.2953219 3.1406246 8.2949219l3.501954-1.75.224609.4472656c0-3.8211-3.063188-6.9204875-6.8671876-6.9921875zm-.4863282.0097656c-3.5302.17697-6.3652406 2.9632563-6.6191406 6.4726563l3.1601563-2.234375 2.4863281 4.9746091zm.6386719 3.1679688-.9589843 9.5839846-3.5136719-7.0253909-2.5546875 1.8066407-.2480469-.3496094c.10756 3.7719996 3.1922344 6.7988286 6.9902344 6.7988286 3.6719001 0 6.6776031-2.829382 6.9707031-6.4257818l-4.244141 2.1210938z" fill="#e6ddff" transform="translate(3 3)"/>
</svg>

<svg xmlns="http://www.w3.org/2000/svg" width="22" height="22" viewBox="0 0 22 22">
 <defs>
  <style id="current-color-scheme" type="text/css">
   .ColorScheme-Text { color:#E6DDFF; } .ColorScheme-Highlight { color:#4285f4; }
  </style>
 </defs>
 <path style="fill:currentColor" class="ColorScheme-Text" d="M 8.1308594 1 C 8.7354194 2.5973 11.272384 9.2953219 11.271484 9.2949219 L 14.773438 7.5449219 L 14.998047 7.9921875 C 14.998047 4.1710875 11.934859 1.0717 8.1308594 1 z M 7.6445312 1.0097656 C 4.1143312 1.1867356 1.2792906 3.9730219 1.0253906 7.4824219 L 4.1855469 5.2480469 L 6.671875 10.222656 L 7.6445312 1.0097656 z M 8.2832031 4.1777344 L 7.3242188 13.761719 L 3.8105469 6.7363281 L 1.2558594 8.5429688 L 1.0078125 8.1933594 C 1.1153725 11.965359 4.2000469 14.992188 7.9980469 14.992188 C 11.669947 14.992188 14.67565 12.162806 14.96875 8.5664062 L 10.724609 10.6875 L 8.2832031 4.1777344 z" transform="translate(3 3)"/>
</svg>
